X: 1462
T: Freemantle Station
B: australian traditional tunes wiki
B: kameruka bush dance
B: to learn
M:3/4
L:1/8
R: Varsovienne
Q: 1/4=100
K:G
V:1 
D2|:"G"B>A G2 =F2|"C"E2z2E2|"Am"c>B A2 G2|"D"F4 D2|"G"d>d B2 G2|"C"E4 (3ABA|"D7"G>F E2 F2|"G"G4 D2:|
"D7"D>E F2 D>E|F>G A2 (3DEF|G>A B2 G2|"G"d3z "C"c2|E>c c2 c2|"G"D>B B2 B2|"D7"D>A A2 A2|"G"G4 D2|
"D7"D>D E>E F>F|"C"G>G A>A B>B|"D7"c>c B2 A2|"G"d3z "C"c2|E>c c2  c2| "G"D>B B2 B2|"D7"D>A A2 B2| "G"G6||
% abcbook-tune_id 6342d53a82d09a81dc3a8bac


% abcbook-boost 0
% abcbook-tablature 
% abcbook-transpose 
% abcbook-lastupdated 1666009565344
% abcbook-soundfonts 
% abcbook-repeats 3
% NFF Book 2008

